!!!OTL: Schwiegertochter (2-95) S. 276
!!!id: P0966
**kern
*clefG2
*k[b-]
*F:
{8cc
8cc
8cc
=1
*M4/4
4.cc
8cc
4cc
4cc
=2
*M3/4
4dd
4cc
4b-}
=3
{8a
8a
=4
*M4/4
4cc
4b-
4a
4g}
=5
*M3/4
{8f
8g
8a
8a
4g}
=6
{8f
8g
8a
8a
4g}
=7
{8f
8a
=8
4.cc
8b-
4a
=9
4g
4.f}
==
*-
!!!minrhy: 8
!!!meters: 3/4 4/4 ]  ZZ[5
!!!cut: Schwiegertochter (2-95) S. 276
!!!reg: Lothringen
!!!trd: PINCK, Louis: Verklingende Weisen, Bd 2, Metz 1928
!!!rhy1: XXX  X_.XX_X_  X_X_X_
!!!rhy2: XX  X_X_X_X_
!!!key: P0966  08  F 3/4 4/4 ]  ZZ[5
!!!mod: SECHSTONSKALA DUR ?]  AMBITUS[6
!!!kad: 42221
!!!akz: 5564_53_1_1_1521_
!!!fot: 'a__b__c__c__d__
!!!for: 'a__b__c__c__aw_
!!!fok: '\__^d_/__/__^__
!! PHRAS[GEMISCHTTAKTIG]
!!!fkt: Brautwerbung
!!!bem1: Fehlermeldung in Mammut kann man ignorieren:
!!!bem2: => 1. bei Taktwechsel sieht Mammut keinen Zusammenhang
!!!bem3:       zwischen letztem Takt und Liedauftakt (!?)
!!!bem4: => 2. wenn eine Zeile (wie Zeile 4) weniger als einen Takt hat
!!!bem5:       und dieser Takt &uuml;ber zwei Teilen aufgeteilt ist, gibt es
!!!bem6:       in Mammut eine Fehlermeldung
!! LOTH VKL
!! PR[35] 2K[0] 2G[7] 3K[4] 3G[4] 4A[13] 4Ü[0] 5A[0] 6K[0] 6G[0]
!! 7K[0] 7G[0] 8A[0] MEHR[0] SI[28] ABS[46] SR[7] SP[22]
!! ST[8] 2k[7] 2g[20] 3k[2] 3g[2] 4d[4] 4ü[0] 5d[2] 6k[0] 6g[0]
!! 7k[0] 7g[0] 8d[0] mehr[0] si[37] dm[-9] sr[26] sp[11]
!! 1F[67] 2F[33] 3F[0] 4F[0] LF[0] 2P[0] 3P[0] 4P[0] TRI[0] DF[2] AB[48]
!! TF[0] U3K[0] U3[0] U4[0] U4Ü[0] U5[19] U6K[0] U6[2] U7K[0] U7[2]
!! N1[17] N2K[0] N2[26] N3K[0] N3[19] N4[4] N4Ü[0] N5[11] N6K[0] N6[0]
!!!n7k: 0] N7[0] O1[0] O2K[0] O2[0] O3K[0] O3[0] HÖ[0
!!!RNB: symbol: &uuml;  = u umlaut (UTF-8: Ã¼)
